X:1
T:Psalm 31c
C:Net soos 'n rots, gesterk, gestewig ...(19) - 3. Derde wysie
C:Op U betrouw ik, HEER der heeren - JS de Villiers 1882; ritmies aangepas 2001
L:1/4
M:2/2 3/2
K:F
Q:1/2=70
yy z C | F E F C A G | G2 F 
yyyy A | B A F G | A3 
yyyy A | G F F E | F3 
yyyy A | c A G F A G | F2 E 
yyyy c | d G c B | A2 G 
yyyy A | B A A G | G2 HF2  |]